svg/email_arrow_right.svg

<svg xmlns="http://www.w3.org/2000/svg" viewBox="0 0 24 24"><path d="M13 19c0-3.31 2.69-6 6-6 1.1 0 2.12.3 3 .81V6a2 2 0 0 0-2-2H4c-1.11 0-2 .89-2 2v12a2 2 0 0 0 2 2h9.09c-.05-.33-.09-.66-.09-1M4 8V6l8 5 8-5v2l-8 5zm16 14v-2h-4v-2h4v-2l3 3z"/></svg>

<svg xmlns="http://www.w3.org/2000/svg" id="mdi-email-arrow-right" viewBox="0 0 24 24"><path d="M13 19C13 15.69 15.69 13 19 13C20.1 13 21.12 13.3 22 13.81V6C22 4.89 21.1 4 20 4H4C2.89 4 2 4.89 2 6V18C2 19.11 2.9 20 4 20H13.09C13.04 19.67 13 19.34 13 19M4 8V6L12 11L20 6V8L12 13L4 8M20 22V20H16V18H20V16L23 19L20 22Z" /></svg>
